brandFactory_export/2.Regular/Mapa plano_2Regular.svg

<?xml version="1.0" encoding="UTF-8"?>
<svg width="24px" height="24px" viewBox="0 0 24 24" version="1.1" xmlns="http://www.w3.org/2000/svg" xmlns:xlink="http://www.w3.org/1999/xlink">
    <title>2.Regular/Mapa plano_2Regular</title>
    <g id="Symbols" stroke="none" stroke-width="1" fill="none" fill-rule="evenodd">
        <g id="2.Regular/Mapa-plano_2Regular" fill="#5CB615" fill-rule="nonzero">
            <path d="M22.1478992,21.0957983 L18.2857143,20.4605042 L18.2857143,1.64369748 L22.1478992,2.2789916 L22.1478992,21.0957983 L22.1478992,21.0957983 Z M1.54285714,2.28235294 L5.63697479,1.63697479 L5.63697479,20.4571429 L1.54285714,21.1058824 L1.54285714,2.28235294 Z M12.5983193,3.0789916 L16.7764706,1.77815126 L16.7764706,20.5478992 L12.5983193,21.8487395 L12.5983193,3.0789916 L12.5983193,3.0789916 Z M7.14285714,1.79159664 L11.092437,3.07226891 L11.092437,21.8319328 L7.14285714,20.5512605 L7.14285714,1.79159664 Z M23.0252101,0.894117647 L17.6537815,0.0100840336 C17.6369748,0.00672268908 17.6168067,0.0134453782 17.6,0.0134453782 C17.5764706,0.0100840336 17.5563025,0 17.5327731,0 C17.4823529,0 17.4386555,0.0168067227 17.3915966,0.0268907563 C17.3647059,0.0336134454 17.3344538,0.0235294118 17.307563,0.0336134454 L11.8487395,1.73109244 L6.62184874,0.0369747899 C6.59159664,0.0268907563 6.56470588,0.0369747899 6.53445378,0.0302521008 C6.48403361,0.0201680672 6.44033613,0 6.38655462,0 C6.36302521,0 6.34285714,0.0100840336 6.32268908,0.0134453782 C6.30588235,0.0168067227 6.28907563,0.00672268908 6.26890756,0.0100840336 L0.665546218,0.894117647 C0.299159664,0.951260504 0.0302521008,1.27058824 0.0302521008,1.64033613 L0.0302521008,21.9831933 C0.0302521008,22.205042 0.127731092,22.4134454 0.295798319,22.5546218 C0.463865546,22.6991597 0.685714286,22.7596639 0.904201681,22.7260504 L6.32941176,21.8689076 L11.6134454,23.5831933 C11.687395,23.6067227 11.7680672,23.6201681 11.8453782,23.6201681 C11.9193277,23.6201681 11.9966387,23.6067227 12.0705882,23.5865546 L17.5865546,21.8689076 L22.7798319,22.7260504 C22.9983193,22.7596639 23.2201681,22.6991597 23.3915966,22.5579832 C23.5596639,22.4134454 23.6571429,22.205042 23.6571429,21.9831933 L23.6571429,1.63697479 C23.6571429,1.26722689 23.3882353,0.954621849 23.0252101,0.894117647 Z" id="Mapa-plano_2Regular"></path>
        </g>
    </g>
</svg>

<svg width="24" height="24" viewBox="0 0 24 24" xmlns="http://www.w3.org/2000/svg"><path d="M22.148 21.096l-3.862-.635V1.644l3.862.635v18.817zM1.543 2.282l4.094-.645v18.82l-4.094.649V2.282zm11.055.797l4.178-1.3v18.769l-4.178 1.3V3.08zM7.143 1.792l3.95 1.28v18.76l-3.95-1.28V1.791zM23.025.894L17.654.01c-.017-.003-.037.003-.054.003C17.576.01 17.556 0 17.533 0c-.05 0-.094.017-.141.027-.027.007-.058-.003-.084.007l-5.46 1.697L6.623.037c-.03-.01-.057 0-.088-.007C6.484.02 6.44 0 6.387 0c-.024 0-.044.01-.064.013-.017.004-.034-.006-.054-.003L.666.894a.755.755 0 00-.636.746v20.343a.754.754 0 00.874.743l5.425-.857 5.284 1.714a.778.778 0 00.458.004l5.516-1.718 5.193.857a.775.775 0 00.612-.168.757.757 0 00.265-.575V1.637a.754.754 0 00-.632-.743z" fill="#5CB615" fill-rule="nonzero"/></svg>
